!!!COM: Mitiku, Solomon Lulu
!!!CDT: b. 1950
!!!OTL: National Anthem, Ethiopia
!!!ENC: Davis, Matthew J.
!!Vocal Line Only
**kern
*clefG2
*k[]
*C:
*M2/4
=1-
[2cc
=2
4cc]
4g
=3
4.ee
8ee
=4
4dd
4cc
=5
[2a
=6
4a]
4g
=7
4.e
8g
=8
4a
4cc
=9
[4dd
=10
4dd]
4ee
=11
4.ee
8ee
=12
4dd
4cc
=13
[4a
=14
4a]
4g
=15
4.a
8cc
=16
4ee
4dd
=17
[2cc
=18
4cc]
8.c
16c
=19
4d
8.e
16e
=20
4.g
16g
=21
8.e
16d
8.c
16d
=22
[2e
=23
4e]
8.e
16e
=24
4g
8.a
16a
=25
4.cc
8ee
=26
8.ee
16cc
8.a
16g
=27
[2e
=28
4e]
8.c
16c
=29
4d
8.e
16e
=30
4.g
16g
=31
8.e
16d
8.c
16d
=32
[2e
=33
4e]
8.e
16e
=34
4g
8.a
16a
=35
4.cc
8ee
=36
8.dd
16cc
8.a
16dd
=37
[2cc
=38
4cc]
16d
16e
16f
16a
16cc
16dd
=39
4.ee
8dd
=40
4ee
8.dd
16cc
=41
4.a
8e
=42
4g
4a
=43
4.dd
8cc
=44
2dd
=45
4.ee
8dd
=46
4ee
8.a
16g
=47
4.e
8d
=48
4e
4g
=49
4a
4cc
=50
8dd
16d
16e
16g
16a
16cc
16dd
=51
4.ee
8dd
=52
4ee
8.dd
16cc
=53
4.a
8e
=54
4g
4a
=55
4.dd
8cc
=56
2dd
=57
4.g
8e
=58
4g
8.a
16g
=59
4.a
16g
=60
4.a
8cc
=61
4ee
4dd
=62
[2cc
=63
8cc]
8r
4r
==|!
*-
